X: 12183
T: Eyebrows
R: reel
M: 4/4
K: Amajor
|:eddc cacc|eddB cccd|eccA Aacc|1 dccA BBcd:|2 dccA BBcB||
|:Accc dBcc|caae dacc|cAcc dBcc|eaad cABB:|
|:eaae dacc|ecca Bacc|eAae dacc|1 eA ~A2 BBcd:|2 eA ~A2 BBcB||
|:Accc cdcc|aeea dacc|eA ~A2 aAcc|1 dccA BBcB:|2 dccA BBcd||

